build/img/first-screen-logo.svg

<svg width="1164" height="145" fill="none" xmlns="http://www.w3.org/2000/svg"><path d="M108.8 143.8h-5.4l-64.6-73L4 106.6v37.2H0V3.8h4v97.4L98.8 3.8h5.4L41.8 68l67 75.8Zm29.872-73h90.2v3.8h-90.2v-3.8Zm0-70.8h90.2v3.8h-90.2V0Zm0 143.8h90.2V140h-90.2v3.8Zm168.04 0h-4V96.2l-57-92.4h4.6l54.4 88.2 54.4-88.2h4.6l-57 92.4v47.6Zm85.765 0h-4V3.8h3.4l65.6 114.8 65.6-114.8h3.4v140h-4V12.4l-63.8 111.6h-2.4l-63.8-111.2v131Zm167.011 0h-4.6l65-140h4l65 140h-4.6l-62.4-134.6-62.4 134.6Zm157.895-140h47.4c17.2 0 30.667 4.067 40.4 12.2 9.733 8 14.6 19.267 14.6 33.8 0 14.533-4.867 25.867-14.6 34-9.733 8-23.2 12-40.4 12h-43.4v48h-4V92h47.8c16.533 0 29.067-3.667 37.6-11 8.667-7.333 13-17.733 13-31.2 0-13.467-4.333-23.867-13-31.2-8.533-7.333-21.067-11-37.6-11h-47.8V3.8ZM844.92 144.4c-1.466 0-2.733-.467-3.8-1.4-.933-1.067-1.4-2.333-1.4-3.8 0-1.467.467-2.667 1.4-3.6 1.067-1.067 2.334-1.6 3.8-1.6 1.467 0 2.667.533 3.6 1.6 1.067.933 1.6 2.133 1.6 3.6s-.533 2.733-1.6 3.8c-.933.933-2.133 1.4-3.6 1.4Z" fill="#0047FF"/><path d="M951 144.4c-8.4 0-15.933-1.2-22.6-3.6-6.667-2.533-12.333-6.267-17-11.2-4.667-4.933-8.267-11.067-10.8-18.4-2.4-7.467-3.6-16.133-3.6-26V3.8h4V85c0 18.8 4.333 32.8 13 42 8.667 9.067 21 13.6 37 13.6s28.333-4.533 37-13.6c8.667-9.2 13-23.2 13-42V3.8h4v81.4c0 9.867-1.27 18.533-3.8 26-2.4 7.333-5.933 13.467-10.6 18.4-4.667 4.933-10.333 8.667-17 11.2-6.667 2.4-14.2 3.6-22.6 3.6Z" fill="url(#a)"/><path d="M1034.6 143.8h-4.6l65-140h4l65 140h-4.6L1097 9.2l-62.4 134.6Z" fill="url(#b)"/><defs><linearGradient id="a" x1="951" y1="3.8" x2="951" y2="144.4" gradientUnits="userSpaceOnUse"><stop stop-color="#0047FF"/><stop offset="1" stop-color="#2F0DFF"/></linearGradient><linearGradient id="b" x1="1097" y1="3.8" x2="1097" y2="143.8" gradientUnits="userSpaceOnUse"><stop stop-color="#FFCE21"/><stop offset="1" stop-color="#FFA621"/></linearGradient></defs></svg>

<svg width="1164" height="145" viewBox="0 0 1164 145" fill="none" xmlns="http://www.w3.org/2000/svg">
<path d="M108.8 143.8H103.4L38.8 70.8L4 106.6V143.8H0V3.8H4V101.2L98.8 3.8H104.2L41.8 68L108.8 143.8Z" fill="#0047FF"/>
<path d="M138.672 70.8H228.872V74.6H138.672V70.8ZM138.672 0H228.872V3.8H138.672V0ZM138.672 143.8H228.872V140H138.672V143.8Z" fill="#0047FF"/>
<path d="M306.712 143.8H302.712V96.2L245.712 3.8H250.312L304.712 92L359.112 3.8H363.712L306.712 96.2V143.8Z" fill="#0047FF"/>
<path d="M392.477 143.8H388.477V3.8H391.877L457.477 118.6L523.077 3.8H526.477V143.8H522.477V12.4L458.677 124H456.277L392.477 12.8V143.8Z" fill="#0047FF"/>
<path d="M559.488 143.8H554.888L619.888 3.8H623.888L688.888 143.8H684.288L621.888 9.2L559.488 143.8Z" fill="#0047FF"/>
<path d="M717.383 3.8H764.783C781.983 3.8 795.45 7.86666 805.183 16C814.916 24 819.783 35.2667 819.783 49.8C819.783 64.3333 814.916 75.6667 805.183 83.8C795.45 91.8 781.983 95.8 764.783 95.8H721.383V143.8H717.383V92H765.183C781.716 92 794.25 88.3333 802.783 81C811.45 73.6667 815.783 63.2667 815.783 49.8C815.783 36.3333 811.45 25.9333 802.783 18.6C794.25 11.2667 781.716 7.59999 765.183 7.59999H717.383V3.8Z" fill="#0047FF"/>
<path d="M844.92 144.4C843.454 144.4 842.187 143.933 841.12 143C840.187 141.933 839.72 140.667 839.72 139.2C839.72 137.733 840.187 136.533 841.12 135.6C842.187 134.533 843.454 134 844.92 134C846.387 134 847.587 134.533 848.52 135.6C849.587 136.533 850.12 137.733 850.12 139.2C850.12 140.667 849.587 141.933 848.52 143C847.587 143.933 846.387 144.4 844.92 144.4Z" fill="#0047FF"/>
<path d="M951 144.4C942.6 144.4 935.067 143.2 928.4 140.8C921.733 138.267 916.067 134.533 911.4 129.6C906.733 124.667 903.133 118.533 900.6 111.2C898.2 103.733 897 95.0667 897 85.2V3.79999H901V85C901 103.8 905.333 117.8 914 127C922.667 136.067 935 140.6 951 140.6C967 140.6 979.333 136.067 988 127C996.667 117.8 1001 103.8 1001 85V3.79999H1005V85.2C1005 95.0667 1003.73 103.733 1001.2 111.2C998.8 118.533 995.267 124.667 990.6 129.6C985.933 134.533 980.267 138.267 973.6 140.8C966.933 143.2 959.4 144.4 951 144.4Z" fill="url(#paint0_linear_216_2821)"/>
<path d="M1034.6 143.8H1030L1095 3.79999H1099L1164 143.8H1159.4L1097 9.19999L1034.6 143.8Z" fill="url(#paint1_linear_216_2821)"/>
<defs>
<linearGradient id="paint0_linear_216_2821" x1="951" y1="3.79999" x2="951" y2="144.4" gradientUnits="userSpaceOnUse">
<stop stop-color="#0047FF"/>
<stop offset="1" stop-color="#2F0DFF"/>
</linearGradient>
<linearGradient id="paint1_linear_216_2821" x1="1097" y1="3.79999" x2="1097" y2="143.8" gradientUnits="userSpaceOnUse">
<stop stop-color="#FFCE21"/>
<stop offset="1" stop-color="#FFA621"/>
</linearGradient>
</defs>
</svg>
